X:177
T:Polska efter Carl Sved
T:(SvL Hälsingland 177)
R:Polska
O:Delsbo, Hälsingland
S:Carl Sved
B:Svenska låtar Hälsingland
M:3/4
L:1/8
K:G
vL[GB,D,]2 L[FA,D,]2 L[GB,D,]2|AA/G/ FG AB|c(c/d/) cB AG|GF/G/ A/G/F/E/ D2|
L[GB,D,]2 L[FA,D,]2 L[GB,D,]2|AA/G/ FG AB|cc/d/ cB AG|(G/F/)E/F/ A2 G2:|
|:BG BG (B/d/)c/B/|AA/G/ FG AB|cB cB ce|
d>c (B/c/)d/e/ d2|de/d/ cB AG|(G/F/)E/F/ A2 G2:|

